updated-assets/icons/innovation.svg

<svg width="37" height="37" viewBox="0 0 37 37" fill="none" xmlns="http://www.w3.org/2000/svg">
<path opacity="0.98" fill-rule="evenodd" clip-rule="evenodd" d="M23.4679 34.25V23.7515L24.0349 22.9258C25.2439 22.3929 26.3369 21.6285 27.2524 20.6758C29.1663 18.6789 30.2296 16.0167 30.2179 13.2507C30.2179 7.4525 25.6841 2.75 20.0929 2.75C14.5016 2.75 9.96787 7.4525 9.96787 13.2507C9.95615 16.0167 11.0194 18.6789 12.9334 20.6758C13.8488 21.6285 14.9418 22.3929 16.1509 22.9258L16.7179 23.7515V34.25H23.4679Z" fill="#FCD062"/>
<path d="M15.6084 27.5H24.5769M15.6084 29.75H24.5769" stroke="#F05542" stroke-linecap="round"/>
</svg>

<svg width="37" height="37" fill="none" xmlns="http://www.w3.org/2000/svg"><path opacity=".98" fill-rule="evenodd" clip-rule="evenodd" d="M23.468 34.25V23.752l.567-.826a10.127 10.127 0 0 0 3.217-2.25 10.665 10.665 0 0 0 2.966-7.425c0-5.798-4.534-10.501-10.125-10.501S9.968 7.452 9.968 13.25a10.665 10.665 0 0 0 2.965 7.426 10.125 10.125 0 0 0 3.218 2.25l.567.826V34.25h6.75Z" fill="#FCD062"/><path d="M15.608 27.5h8.969m-8.969 2.25h8.969" stroke="#F05542" stroke-linecap="round"/></svg>
